docs/imgs/brand-muuto.svg

<svg width="120" height="23" viewBox="0 0 120 23" fill="none" xmlns="http://www.w3.org/2000/svg">
<path fill-rule="evenodd" clip-rule="evenodd" d="M108.568 17.295C106.861 17.295 104.242 16.173 104.242 11.3487C104.242 6.52524 106.861 5.40262 108.568 5.40262C110.274 5.40262 112.893 6.52524 112.893 11.3487C112.893 16.173 110.274 17.295 108.568 17.295ZM108.568 0.00341797C101.954 0.00341797 97.5371 4.73437 97.5371 11.3487C97.5371 17.9644 101.954 22.6954 108.568 22.6954C115.182 22.6954 119.602 17.9644 119.602 11.3487C119.602 4.73437 115.182 0.00341797 108.568 0.00341797Z" fill="#6E6E6E"/>
<path fill-rule="evenodd" clip-rule="evenodd" d="M54.1781 0.41748H48.8606C48.4705 0.41748 48.1517 0.734473 48.1517 1.12133V12.2712C48.1517 14.4953 48.1517 17.2732 44.9655 17.2732C41.6936 17.2732 41.6936 14.4953 41.6936 12.2712V1.12133C41.6936 0.734473 41.3748 0.41748 40.9826 0.41748H35.6648C35.2747 0.41748 34.959 0.734473 34.959 1.12133V13.7639C34.959 19.8011 38.2631 22.6956 44.9364 22.6956C51.6116 22.6956 54.8838 19.8011 54.8838 13.7639V1.12133C54.8838 0.734473 54.5679 0.41748 54.1781 0.41748Z" fill="#6E6E6E"/>
<mask id="mask0" mask-type="alpha" maskUnits="userSpaceOnUse" x="0" y="0" width="77" height="23">
<path d="M38.3072 0H0V22.6954H76.6143V0H38.3072Z" fill="white"/>
</mask>
<g mask="url(#mask0)">
<path fill-rule="evenodd" clip-rule="evenodd" d="M75.906 0.41748H70.5886C70.1962 0.41748 69.8796 0.734473 69.8796 1.12133V12.2712C69.8796 14.4953 69.8796 17.2732 66.6971 17.2732C63.4191 17.2732 63.4191 14.4953 63.4191 12.2712V1.12133C63.4191 0.734473 63.1034 0.41748 62.7111 0.41748H57.3962C57.0036 0.41748 56.6855 0.734473 56.6855 1.12133V13.7639C56.6855 19.8011 59.9951 22.6956 66.6649 22.6956C73.3375 22.6956 76.6149 19.8011 76.6149 13.7639V1.12133C76.6149 0.734473 76.2986 0.41748 75.906 0.41748Z" fill="#6E6E6E"/>
<path fill-rule="evenodd" clip-rule="evenodd" d="M23.1328 0C20.3451 0 18.1515 0.504735 16.5419 1.53503C14.9243 0.504735 12.7243 0 9.93712 0C3.26452 0 -0.00976562 2.89518 -0.00976562 8.9297V21.5708C-0.00976562 21.9617 0.305808 22.2788 0.695566 22.2788H6.01626C6.40557 22.2788 6.7213 21.9617 6.7213 21.5708V10.4237C6.7213 8.19719 6.7213 5.42639 9.9073 5.42639C13.1825 5.42639 13.1825 8.19719 13.1825 10.4237V21.5708C13.1825 21.9617 13.5013 22.2788 13.8909 22.2788H19.209C19.5984 22.2788 19.9162 21.9617 19.9162 21.5708V10.4237C19.9162 8.19719 19.9162 5.42639 23.1003 5.42639C26.3777 5.42639 26.3777 8.19719 26.3777 10.4237V21.5708C26.3777 21.9617 26.6933 22.2788 27.083 22.2788H32.4013C32.7935 22.2788 33.1095 21.9617 33.1095 21.5708V8.9297C33.1095 2.89518 29.8051 0 23.1328 0Z" fill="#6E6E6E"/>
</g>
<path fill-rule="evenodd" clip-rule="evenodd" d="M96.4328 0.41748H78.87C78.4775 0.41748 78.1621 0.734473 78.1621 1.12133V5.28817C78.1621 5.67946 78.4775 5.99173 78.87 5.99173H84.2828V21.5799C84.2828 21.9678 84.5988 22.2839 84.9917 22.2839H90.306C90.699 22.2839 91.0182 21.9678 91.0182 21.5799V5.99173H96.4328C96.8233 5.99173 97.1378 5.67946 97.1378 5.28817V1.12133C97.1378 0.734473 96.8233 0.41748 96.4328 0.41748Z" fill="#6E6E6E"/>
</svg>

<svg width="120" height="23" fill="none" xmlns="http://www.w3.org/2000/svg"><path fill-rule="evenodd" clip-rule="evenodd" d="M108.568 17.295c-1.707 0-4.326-1.122-4.326-5.946s2.619-5.946 4.326-5.946c1.706 0 4.325 1.122 4.325 5.946s-2.619 5.946-4.325 5.946zm0-17.292c-6.614 0-11.03 4.731-11.03 11.346s4.416 11.346 11.03 11.346c6.614 0 11.034-4.73 11.034-11.346 0-6.615-4.42-11.346-11.034-11.346zm-54.39.414h-5.317a.709.709 0 0 0-.71.704v11.15c0 2.224 0 5.002-3.186 5.002-3.271 0-3.271-2.778-3.271-5.002V1.121a.709.709 0 0 0-.711-.704h-5.318a.706.706 0 0 0-.706.704v12.643c0 6.037 3.304 8.932 9.977 8.932 6.676 0 9.948-2.895 9.948-8.932V1.12a.706.706 0 0 0-.706-.704z" fill="#6E6E6E"/><mask id="a" maskUnits="userSpaceOnUse" x="0" y="0" width="77" height="23"><path d="M38.307 0H0v22.695h76.614V0H38.307z" fill="#fff"/></mask><g mask="url(#a)" fill-rule="evenodd" clip-rule="evenodd" fill="#6E6E6E"><path d="M75.906.417h-5.317a.707.707 0 0 0-.71.704v11.15c0 2.224 0 5.002-3.182 5.002-3.278 0-3.278-2.778-3.278-5.002V1.121a.706.706 0 0 0-.708-.704h-5.315a.708.708 0 0 0-.71.704v12.643c0 6.037 3.31 8.932 9.979 8.932 6.672 0 9.95-2.895 9.95-8.932V1.12a.707.707 0 0 0-.709-.704zM23.133 0c-2.788 0-4.982.505-6.591 1.535C14.924.505 12.724 0 9.937 0 3.265 0-.01 2.895-.01 8.93v12.64c0 .392.316.709.706.709h5.32c.39 0 .705-.317.705-.708V10.424c0-2.227 0-4.998 3.186-4.998 3.275 0 3.275 2.771 3.275 4.998V21.57c0 .39.32.708.709.708h5.318c.39 0 .707-.317.707-.708V10.424c0-2.227 0-4.998 3.184-4.998 3.278 0 3.278 2.771 3.278 4.998V21.57c0 .39.315.708.705.708h5.318a.707.707 0 0 0 .708-.708V8.93c0-6.035-3.304-8.93-9.976-8.93z"/></g><path fill-rule="evenodd" clip-rule="evenodd" d="M96.433.417H78.87a.706.706 0 0 0-.708.704v4.167c0 .391.316.704.708.704h5.413V21.58c0 .388.316.704.709.704h5.314a.709.709 0 0 0 .712-.704V5.992h5.415c.39 0 .705-.313.705-.704V1.121a.705.705 0 0 0-.705-.704z" fill="#6E6E6E"/></svg>
